X:1
T:Johann Sebastian Bach - Sonata No.1 - BWV 1001 - Presto
T:Johann Sebastian Bach - Sonata No.1 - BWV 1001 - Presto
Z:Johann Sebastian Bach - Sonata No.1 - BWV 1001 - Presto
%%score ( 1 2 3 4 )
L:1/8
Q:1/4=130
M:3/8
K:F
V:1 treble nm="Violin"
V:2 treble 
V:3 treble 
V:4 treble 
V:1
"^Presto." g/b/g/d/g/d/ | B/d/B/G/B/G/ | D/G/D/B,/D/B,/ | G,/B,/D/G/B/d/ | g/(d/c/B/A/G/) | %5
 ^F/D/F/A/d/^f/ | a/(_e/d/c/B/A/) | G/D/G/B/d/g/ | b/g/_e/c/e/g/ | a/f/d/B/d/f/ | g/_e/c/A/c/_e/ | %11
 D/(g/^f/g/a/c/) | G/(c/B/c/d/F/) | C/(f/e/f/g/B/) | F/(B/A/B/c/_E/) | B,/(_e/d/e/f/_A/) | %16
 _E/B,/E/G/E/G/ | c/G/c/_e/c/e/ | F/C/F/A/F/A/ | d/A/d/f/d/f/ | G/D/G/B/G/B/ | _e/B/e/g/e/g/ | %22
 A/F/A/c/A/c/ | f/c/f/a/f/a/ | (B/c/d/)b/a/b/ | (c/d/_e/)b/a/b/ | (d/_e/f/)b/a/b/ | %27
 (_e/f/g/)b/a/b/ | (A/c/_e/)g/f/e/ | (d/B/)(_e/B/)f/_A/ | (G/=A/B/)D/C/A/ | B,/(D/C/B,/A,/G,/ | %32
 A,/)(G/^F/E/D/)(c/ | B/A/G/)(f/e/d/ | ^c/)(b/a/g/f/e/) | (f/d/)(g/d/)a/=c/ | B/(a/g/f/e/d/) | %37
 (e/c/)(f/c/)g/B/ | A/(g/f/e/d/^c/) | (d/B/)(e/B/)f/A/ | G/(f/e/d/^c/=B/) | (^c/A/)(d/A/)e/G/ | %42
 F/d/B/G/E/c/ | D/B/G/E/C/A/ | B,/G/E/^C/A,/F/ | G,/(F/E/D/^C/=B,/) | A,/D/(^C/E/)(D/F/) | %47
 A,/E/(D/F/)(E/G/) | A,/F/(E/G/)(F/A/) | B,/G/(^F/A/)(G/B/) | ^C/(B/A/G/=F/E/) | F/D/F/A/d/f/ | %52
 a/d/A^c | d3 :: D/A,/D/^F/D/F/ | A/^F/A/d/A/d/ | ^f/d/f/a/f/a/ | d'/a/^f/d/A/^F/ | %58
 (D/E/^F/G/A/B/ | c/)_e/c/A/c/A/ | ^F/D/F/A/d/c/ | B/d/B/G/D/B,/ | (G,/A,/B,/C/D/_E/ | %63
 F/)_A/F/D/F/D/ | =B,/G,/B,/D/G/F/ | _E/C/E/G/c/d/ | _e/c/_A/F/A/c/ | d/B/G/_E/G/B/ | %68
 c/_A/F/D/F/A/ | G,/(c/=B/c/d/)F/ | C/(f/_e/f/g/)_B/ | F/(B/_A/B/c/)_E/ | B,/(_e/d/e/f/)_A/ | %73
 _E/(_A/G/A/B/)_D/ | (_A,/C/F/_A/G/F/) | (=B,/D/F/_A/G/F/) | (C/=E/F/_A/G/F/) | (D/F/=B/c/d/F/) | %78
 (_E/G/c/d/_e/c/) | (_a/g/f/_e/d/c/) | g/d/_e/c/G/=B/ | C/(F/_E/D/C/_B,/) | A,/C/F/C/F/A/ | %83
 F/A/c/A/c/_e/ | (c/_e/a/g/f/e/) | (d/c/B/c/d/=e/) | ^f/a/c'/a/f/a/ | ^f/c/f/c/A/c/ | %88
 A/^F/A/F/D/c/ | B/G/B/G/=E/d/ | c/A/c/A/^F/_e/ | d/B/d/B/G/f/ | _e/c/e/c/A/g/ | %93
 (^f/d/=e/^f/g/a/) | b/d/g/b/c/_e/ | a/f/d/B/d/f/ | g/B/_e/g/A/c/ | f/d/B/G/B/d/ | _e/G/c/e/F/A/ | %99
 d/B/G/=E/G/B/ | (c/A/)(B/G/)^F/A/ | (D/E/^F/G/A/B/) | (c/_e/)(d/g/)(^f/b/) | (a/g/^f/=e/d/c/) | %104
 B/_e/(d/B/)(c/A/) | F/d/(c/A/)(B/G/) | _E/c/(B/G/)(A/^F/) | D/B/(A/^F/)(G/_E/) | %108
 C/A/(G/=E/)(^F/D/) | B,/(d/c/B/A/G/) | (_e/d/c/)(b/a/g/) | (^f/g/a/)d/_e/c/ | (=F/=B/d/)_A/G/F/ | %113
 =E/G/c/=e/g/_B/ | (_E/A/c/)G/F/E/ | D/F/B/d/f/_A/ | G/(_e/B/G/_E/D/ | C/)(_e/c/B/=A/G/ | %118
 ^F/)(d/A/F/D/C/ | B,/)(d/B/A/G/=F/ | =E/)C/G/B,/A,/G/ | ^F/D/A/C/B,/A/ | G/_E/B/D/C/B/ | %123
 A/F/c/_E/D/c/ | B/G/D/F/=E/d/ | c/A/_e/G/^F/_e/ | d/B/g/B/A/c/ | B/G/^F/A/D/C/ | %128
 B,/G/(^F/A/)(G/B/) | C/A/(G/B/)(A/c/) | D/B/(A/c/)(B/d/) | _E/c/(=B/d/)(c/_e/) | %132
 ^F/(_e/d/c/_B/A/) | B/d/g/b/g/d/ | B/G/D^f | !fermata!g3 :| %136
V:2
 x3 | x3 | x3 | x3 | x3 | x3 | x3 | x3 | x3 | x3 | x3 | x3 | x3 | x3 | x3 | x3 | x3 | x3 | x3 | %19
 x3 | x3 | x3 | x3 | x3 | x3 | x3 | x3 | x3 | x3 | x3 | x3 | x3 | x3 | x3 | x3 | x3 | x3 | x3 | %38
 x3 | x3 | x3 | x3 | x3 | x3 | x3 | x3 | x3 | x3 | x3 | x3 | x3 | x3 | x AG | D3 :: x3 | x3 | x3 | %57
 x3 | x3 | x3 | x3 | x3 | x3 | x3 | x3 | x3 | x3 | x3 | x3 | x3 | x3 | x3 | x3 | x3 | x3 | x3 | %76
 x3 | x3 | x3 | x3 | x3 | x3 | x3 | x3 | x3 | x3 | x3 | x3 | x3 | x3 | x3 | x3 | x3 | x3 | x3 | %95
 x3 | x3 | x3 | x3 | x3 | x3 | x3 | x3 | x3 | x3 | x3 | x3 | x3 | x3 | x3 | x3 | x3 | x3 | x3 | %114
 x3 | x3 | x3 | x3 | x3 | x3 | x3 | x3 | x3 | x3 | x3 | x3 | x3 | x3 | x3 | x3 | x3 | x3 | x3 | %133
 x3 | x2 c | B3 :| %136
V:3
 x3 | x3 | x3 | x3 | x3 | x3 | x3 | x3 | x3 | x3 | x3 | x3 | x3 | x3 | x3 | x3 | x3 | x3 | x3 | %19
 x3 | x3 | x3 | x3 | x3 | x3 | x3 | x3 | x3 | x3 | x3 | x3 | x3 | x3 | x3 | x3 | x3 | x3 | x3 | %38
 x3 | x3 | x3 | x3 | x3 | x3 | x3 | x3 | x3 | x3 | x3 | x3 | x3 | x3 | x2 A, | ^F3 :: x3 | x3 | %56
 x3 | x3 | x3 | x3 | x3 | x3 | x3 | x3 | x3 | x3 | x3 | x3 | x3 | x3 | x3 | x3 | x3 | x3 | x3 | %75
 x3 | x3 | x3 | x3 | x3 | x3 | x3 | x3 | x3 | x3 | x3 | x3 | x3 | x3 | x3 | x3 | x3 | x3 | x3 | %94
 x3 | x3 | x3 | x3 | x3 | x3 | x3 | x3 | x3 | x3 | x3 | x3 | x3 | x3 | x3 | x3 | x3 | x3 | x3 | %113
 x3 | x3 | x3 | x3 | x3 | x3 | x3 | x3 | x3 | x3 | x3 | x3 | x3 | x3 | x3 | x3 | x3 | x3 | x3 | %132
 x3 | x3 | x2 D | D3 :| %136
V:4
 x3 | x3 | x3 | x3 | x3 | x3 | x3 | x3 | x3 | x3 | x3 | x3 | x3 | x3 | x3 | x3 | x3 | x3 | x3 | %19
 x3 | x3 | x3 | x3 | x3 | x3 | x3 | x3 | x3 | x3 | x3 | x3 | x3 | x3 | x3 | x3 | x3 | x3 | x3 | %38
 x3 | x3 | x3 | x3 | x3 | x3 | x3 | x3 | x3 | x3 | x3 | x3 | x3 | x3 | x3 | x3 :: x3 | x3 | x3 | %57
 x3 | x3 | x3 | x3 | x3 | x3 | x3 | x3 | x3 | x3 | x3 | x3 | x3 | x3 | x3 | x3 | x3 | x3 | x3 | %76
 x3 | x3 | x3 | x3 | x3 | x3 | x3 | x3 | x3 | x3 | x3 | x3 | x3 | x3 | x3 | x3 | x3 | x3 | x3 | %95
 x3 | x3 | x3 | x3 | x3 | x3 | x3 | x3 | x3 | x3 | x3 | x3 | x3 | x3 | x3 | x3 | x3 | x3 | x3 | %114
 x3 | x3 | x3 | x3 | x3 | x3 | x3 | x3 | x3 | x3 | x3 | x3 | x3 | x3 | x3 | x3 | x3 | x3 | x3 | %133
 x3 | x3 | G,3 :| %136

